symbols/web/offline_bolt/materialsymbolsoutlined/offline_bolt_wght100_48px.svg

<svg xmlns="http://www.w3.org/2000/svg" height="48" width="48"><path d="m24.25 32.1 5-9.65h-5.2V15.7l-5.25 9.85h5.45ZM24 41.4q-3.6 0-6.75-1.375t-5.525-3.75Q9.35 33.9 7.975 30.75 6.6 27.6 6.6 24t1.375-6.775q1.375-3.175 3.75-5.525Q14.1 9.35 17.25 7.975 20.4 6.6 24 6.6t6.775 1.375Q33.95 9.35 36.3 11.7q2.35 2.35 3.725 5.525Q41.4 20.4 41.4 24q0 3.6-1.375 6.75T36.3 36.275q-2.35 2.375-5.525 3.75Q27.6 41.4 24 41.4Zm0-1.1q6.8 0 11.55-4.75Q40.3 30.8 40.3 24q0-6.8-4.75-11.55Q30.8 7.7 24 7.7q-6.8 0-11.55 4.75Q7.7 17.2 7.7 24q0 6.8 4.75 11.55Q17.2 40.3 24 40.3ZM24 24Z"/></svg>

<svg xmlns="http://www.w3.org/2000/svg" height="48" width="48"><path d="M24.25 32.1 29.25 22.45H24.05V15.7L18.8 25.55H24.25ZM24 41.4Q20.4 41.4 17.25 40.025Q14.1 38.65 11.725 36.275Q9.35 33.9 7.975 30.75Q6.6 27.6 6.6 24Q6.6 20.4 7.975 17.25Q9.35 14.1 11.725 11.725Q14.1 9.35 17.25 7.975Q20.4 6.6 24 6.6Q27.6 6.6 30.75 7.975Q33.9 9.35 36.275 11.725Q38.65 14.1 40.025 17.25Q41.4 20.4 41.4 24Q41.4 27.6 40.025 30.75Q38.65 33.9 36.275 36.275Q33.9 38.65 30.75 40.025Q27.6 41.4 24 41.4ZM24 24Q24 24 24 24Q24 24 24 24Q24 24 24 24Q24 24 24 24Q24 24 24 24Q24 24 24 24Q24 24 24 24Q24 24 24 24ZM24 40.3Q30.75 40.3 35.525 35.525Q40.3 30.75 40.3 24Q40.3 17.25 35.525 12.475Q30.75 7.7 24 7.7Q17.25 7.7 12.475 12.475Q7.7 17.25 7.7 24Q7.7 30.75 12.475 35.525Q17.25 40.3 24 40.3Z"/></svg>
